X:9
T:Walliser Galopp  A&D (tinwhistle in D) solo
T:GL00784 (Hanny Christen)
%%MIDI program 72   % 111 /74 / 79=whistle
R:Galopp
M:2/4
L:1/8
K:A transpose=12
ed !>!F2 | dc !>!E2 | A>"_#"G FE | Afe2 | ed !>!F2 | dc!>!E2 | 
AA/2"_#"G/2 F"_#"G |1 A3z :|2 A3E/2E/2 |: E2F2 | E3E | Ed c/2d/2d | Ec B/2c/2c | 
E2F2 | E3E | Ee F>"_#"G |1 A3E/2E/2 :|2 A3z |: [K:D] Ad/2d/2 de | fe/2e/2 ec | 
dc BA | [A2F2] [F2D2] | Ad/2d/2 de | fe/2e/2 ec | dc B>c | d3z :|
W:
W:for tin whistle TABs go to: 
W:http://www.mandolintab.net/abcconverter.php
W:" Tablatur: Whistle - key: D "
W:a fingering chart (advanced) you can download from:
W:http://fullbodyburn.com/wp-content/uploads/2011/07/01-D1.jpg
% July 3, 2016

